X:411
T: STEH NUR AUF STEH NUR AUF
N: E1603
O: Europa, Mitteleuropa, Deutschland, Schlesien
R: Staende -, Handwerker -, Gesellen - Lied, Wanderschaft
M: 4/4
L: 1/8
K: F
FA | c2ccc2dc | B2BBB2
cB | A3GFdcB | B4A2
c2 | d3cd2de | fefec2z
B | A3FcABG | G4F2

@@@ Tune index: 5095
